svgs/sharp-light/diagram-nested.svg

<svg xmlns="http://www.w3.org/2000/svg" viewBox="0 0 448 512"><!--! Font Awesome Pro 6.6.0 by @fontawesome - https://fontawesome.com License - https://fontawesome.com/license (Commercial License) Copyright 2024 Fonticons, Inc. --><path d="M160 64l0 128-48 0-32 0-48 0L32 64l128 0zM112 224l48 0 32 0 0-32 0-128 0-32-32 0L32 32 0 32 0 64 0 192l0 32 32 0 48 0 0 160 0 16 16 0 160 0 0 48 0 32 32 0 128 0 32 0 0-32 0-128 0-32-32 0-128 0-32 0 0 32 0 48-144 0 0-144zM288 368l0-48 128 0 0 128-128 0 0-48 0-32z"/></svg>

<svg xmlns="http://www.w3.org/2000/svg" viewBox="0 0 448 512"><!--! Font Awesome Pro 6.4.2 by @fontawesome - https://fontawesome.com License - https://fontawesome.com/license (Commercial License) Copyright 2023 Fonticons, Inc. --><path d="M160 64V192H112 80 32V64H160zM112 224h48 32V192 64 32H160 32 0V64 192v32H32 80V384v16H96 256v48 32h32H416h32V448 320 288H416 288 256v32 48H112V224zM288 368V320H416V448H288V400 368z"/></svg>
